src/images/notif.svg

<svg width="103" height="108" viewBox="0 0 103 108" fill="none" xmlns="http://www.w3.org/2000/svg">
<g id="Frame 12" filter="url(#filter0_d_3_1860)">
<rect x="29" y="25" width="50" height="50" rx="8" fill="white" shape-rendering="crispEdges"/>
<path id="Union" fill-rule="evenodd" clip-rule="evenodd" d="M60.0294 50.83L61.0294 52.49C61.4194 53.13 61.4894 53.89 61.2294 54.58C60.9694 55.27 60.4294 55.8 59.7294 56.03C57.7894 56.68 55.7494 57 53.7094 57C51.6694 57 49.6294 56.68 47.6894 56.02C46.9494 55.77 46.3794 55.25 46.1394 54.58C45.8894 53.9 45.9794 53.16 46.3794 52.49L47.3894 50.82C47.5994 50.46 47.7894 49.76 47.7894 49.35V46.82C47.7894 44.5 49.1394 42.49 51.0894 41.52C51.6094 40.59 52.5894 40 53.6794 40C54.7794 40 55.7394 40.57 56.2594 41.49C58.2494 42.44 59.6294 44.47 59.6294 46.82V49.35C59.6294 49.76 59.8194 50.46 60.0294 50.83ZM53.6895 60C54.9895 60 56.0995 59.17 56.5195 58.01C56.3495 58.03 56.1895 58.05 56.0295 58.07C55.8945 58.0903 55.7548 58.1014 55.6137 58.1127C55.5459 58.1181 55.4777 58.1235 55.4095 58.13C54.8495 58.18 54.2795 58.21 53.7095 58.21C53.1295 58.21 52.5495 58.18 51.9795 58.13C51.7395 58.11 51.4995 58.08 51.2695 58.05C51.2037 58.0406 51.1401 58.0334 51.0777 58.0263C51.0073 58.0184 50.9384 58.0106 50.8695 58C51.0095 58.41 51.2495 58.81 51.5695 59.11C52.1195 59.68 52.8995 60 53.6895 60Z" fill="#212121"/>
<g id="Ellipse 2" filter="url(#filter1_d_3_1860)">
<circle cx="61" cy="43" r="5" fill="#DD0033"/>
</g>
</g>
<defs>
<filter id="filter0_d_3_1860" x="0" y="0" width="108" height="108" filterUnits="userSpaceOnUse" color-interpolation-filters="sRGB">
<feFlood flood-opacity="0" result="BackgroundImageFix"/>
<feColorMatrix in="SourceAlpha" type="matrix" values="0 0 0 0 0 0 0 0 0 0 0 0 0 0 0 0 0 0 127 0" result="hardAlpha"/>
<feOffset dy="4"/>
<feGaussianBlur stdDeviation="14.5"/>
<feComposite in2="hardAlpha" operator="out"/>
<feColorMatrix type="matrix" values="0 0 0 0 0.898039 0 0 0 0 0.898039 0 0 0 0 0.898039 0 0 0 1 0"/>
<feBlend mode="normal" in2="BackgroundImageFix" result="effect1_dropShadow_3_1860"/>
<feBlend mode="normal" in="SourceGraphic" in2="effect1_dropShadow_3_1860" result="shape"/>
</filter>
<filter id="filter1_d_3_1860" x="49" y="32" width="26" height="26" filterUnits="userSpaceOnUse" color-interpolation-filters="sRGB">
<feFlood flood-opacity="0" result="BackgroundImageFix"/>
<feColorMatrix in="SourceAlpha" type="matrix" values="0 0 0 0 0 0 0 0 0 0 0 0 0 0 0 0 0 0 127 0" result="hardAlpha"/>
<feOffset dx="1" dy="2"/>
<feGaussianBlur stdDeviation="4"/>
<feComposite in2="hardAlpha" operator="out"/>
<feColorMatrix type="matrix" values="0 0 0 0 0.866667 0 0 0 0 0 0 0 0 0 0.2 0 0 0 0.3 0"/>
<feBlend mode="normal" in2="BackgroundImageFix" result="effect1_dropShadow_3_1860"/>
<feBlend mode="normal" in="SourceGraphic" in2="effect1_dropShadow_3_1860" result="shape"/>
</filter>
</defs>
</svg>

<svg width="103" height="108" fill="none" xmlns="http://www.w3.org/2000/svg"><g filter="url(#a)"><rect x="29" y="25" width="50" height="50" rx="8" fill="#fff" shape-rendering="crispEdges"/><path fill-rule="evenodd" clip-rule="evenodd" d="m60.03 50.83 1 1.66c.39.64.46 1.4.2 2.09s-.8 1.22-1.5 1.45c-1.94.65-3.98.97-6.02.97-2.04 0-4.08-.32-6.02-.98-.74-.25-1.31-.77-1.55-1.44-.25-.68-.16-1.42.24-2.09l1.01-1.67c.21-.36.4-1.06.4-1.47v-2.53c0-2.32 1.35-4.33 3.3-5.3A2.96 2.96 0 0 1 53.68 40c1.1 0 2.06.57 2.58 1.49a5.91 5.91 0 0 1 3.37 5.33v2.53c0 .41.19 1.11.4 1.48ZM53.69 60c1.3 0 2.41-.83 2.83-1.99l-.49.06c-.136.02-.275.031-.416.043-.068.005-.136.01-.204.017-.56.05-1.13.08-1.7.08-.58 0-1.16-.03-1.73-.08-.24-.02-.48-.05-.71-.08-.066-.01-.13-.017-.192-.024a5.121 5.121 0 0 1-.209-.026c.14.41.38.81.7 1.11.55.57 1.33.89 2.12.89Z" fill="#212121"/><g filter="url(#b)"><circle cx="61" cy="43" r="5" fill="#D03"/></g></g><defs><filter id="a" x="0" y="0" width="108" height="108" filterUnits="userSpaceOnUse" color-interpolation-filters="sRGB"><feFlood flood-opacity="0" result="BackgroundImageFix"/><feColorMatrix in="SourceAlpha" values="0 0 0 0 0 0 0 0 0 0 0 0 0 0 0 0 0 0 127 0" result="hardAlpha"/><feOffset dy="4"/><feGaussianBlur stdDeviation="14.5"/><feComposite in2="hardAlpha" operator="out"/><feColorMatrix values="0 0 0 0 0.898039 0 0 0 0 0.898039 0 0 0 0 0.898039 0 0 0 1 0"/><feBlend in2="BackgroundImageFix" result="effect1_dropShadow_3_1860"/><feBlend in="SourceGraphic" in2="effect1_dropShadow_3_1860" result="shape"/></filter><filter id="b" x="49" y="32" width="26" height="26" filterUnits="userSpaceOnUse" color-interpolation-filters="sRGB"><feFlood flood-opacity="0" result="BackgroundImageFix"/><feColorMatrix in="SourceAlpha" values="0 0 0 0 0 0 0 0 0 0 0 0 0 0 0 0 0 0 127 0" result="hardAlpha"/><feOffset dx="1" dy="2"/><feGaussianBlur stdDeviation="4"/><feComposite in2="hardAlpha" operator="out"/><feColorMatrix values="0 0 0 0 0.866667 0 0 0 0 0 0 0 0 0 0.2 0 0 0 0.3 0"/><feBlend in2="BackgroundImageFix" result="effect1_dropShadow_3_1860"/><feBlend in="SourceGraphic" in2="effect1_dropShadow_3_1860" result="shape"/></filter></defs></svg>
